X: 6586
T: Cats Of Camazen, The
R: reel
M: 4/4
K: Amixolydian
A2 GE FAGE|FDFG A2 GE|FAGE FAGE|FDFG A4|
A2 GE FAGE|FDFG A2 GE|FAGE FAGE|1 EDDE D4:|2 EDDE D2 dc||
BG G2 DGBG|AF F2 DFAF|GEFG EFGE|FDFG A2 dc|
BG G2 DGBG|AF F2 DFAF|GEFG EFGE|1 EDDE D2 dc:|2 EDDE D4||

